X:20
T:Gentle Damon in Comus. ET.20
M:3/4
L:1/8
Q:1/4=60
S:Eliza Tennyson MS, Lincolnshire,1822
R:air
O:England;Lincolnshire;Somersby
Z:vmp.R.Greig 2011 <http://www.village-music-project.org.uk>
K:E
zBBAAG|GFFdde|eAAGGc|cBBAG2|FGD3E|!
M:C
Q:1/4=100
E2zBG2G2|G2G2F2E2|A2z2zA G> F|B> F A G E2z G|
w:-How gent-le was my Da-mon’s Air, Like sun-ny Beams his gol-den hair His
c> G B> c ^A> A A|A2G F ^B> B B c|G2z2zF B F|A A B F G2z B|
w: voice was like the night-ing-ale’s More sweet his breath than flow-ery vales How hard such beaut-ies to re-sign
G B e c ^A2z B|F2z2z4||!
w: And yet that cruel task is mine.
M:3/4
K:G
B2|c2B2A2|B4G2|A2G2F2|G4^d2″^bar line added”|e2B2z2|cABE^DA|G/F/E F3E|!
G4B2″bar line added”|c2B2A2|B4G2|A2G2F2″bar line added”|G4A2|!
w:-On ev-er-y hill, in ev-er-y grove A-
B2c2B2|^D4E2″^bar line added”|FG A2G2″^bar line added”|G2F2z2|!
w:-long the mar-gin o-f ea-ch str-eam
d2cBAG|F4G2|ABc2B2|B2A2c2|!
w:Dear con—cious scenes of for—mer lo-ve I
c2B2e2|d2 cBAG|c/B/AA4|G6||!
w:mo-urn and Da—-mon i–s my theme
B2|=f2e2d2|c2B2A2|d2c2B2|A4c2|!
w:the Hi-lls, the Gr-oves, the Str-eams re-main but
e2d2c2|BcdB AG|e2d2F2|G4B2|!
w:Da-m-on th—ere I– se-ek in vain but
B2A2zA|A2G2zA|B2c2E2|E2^D2^d2|!
w:The hills, the Gr-oves the str-eams re-ma-in but
e2B2Hz2|c2B2A2|G/F/EF4|E4^d2|!
w:Da-mon th-ere I se–ek in vain
e2B2z2|cABE^DA|G/F/E F2>E2|E4|]

